<?xml version="1.0"?>
<map orientation="orthogonal" width="10" height="6" tilewidth="32" tileheight="32">
	<objectgroup name="Gameplay">
		<object id="1" template="guard.tx" x="32" y="64"/>
		<object id="2" template="guard.tx" name="Gatekeeper" x="128" y="64">
			<properties>
				<property name="stats" type="class" propertytype="EnemyStats">
					<properties><property name="health" type="int" value="250"/></properties>
				</property>
				<property name="opens" type="object" value="3"/>
			</properties>
		</object>
		<object id="3" name="North gate" type="Door" x="224" y="32" width="32" height="64"/>
	</objectgroup>
</map>
